!!!!SEGMENT: pl-wn--mus-iv-141-999-cim--001-002_zelenski-wladyslaw--sonata-op-5-adagio-e-capriccio.krn
!!!cenid: 18xx:3671
!!!COM: Żeleński, Władysław
!!!COM-rismID: pe41024455
!!!CDT: 1837/07/06-1921/01/23
!!!CNT: Polish
!!!OPR: Sonata op. 5
!!!OTL: Adagio e capriccio
!!!OMV: 002
!!!PDT:
!!!AGN:
!!!SMS-siglum: PL-Wn
!!!SMS-shelfmark: Mus.IV.141.999 Cim.
!!!SMS-shelfwork: 001-002 M
!!!SMS-variant:
!!!SMS-altvar:
!!!NIFC-rismSourceID:
!!!NIFC-rismChildID:
!!!NIFC-islandoraID: none
!!!URL-pdf-islandora:
!!!URL-scan: https://polona2.pl/item/sonata-per-pianoforte-op-5,NzQ5NTg0MTA/2 @EN{Scan on Polona} @PL{Skany w portalu Polona}
!!!IIIF: https://polona2.pl/iiif/item/NzQ5NTg0MTA/manifest.json
!!!ONB-nifc: UWAGA: części Sonaty: 1. Allegro deciso, 2. Adagio e capriccio, 3. Rondo
!!!AIN: 2 piano
!!!key: E-
**kern	**kern	**dynam
*part2	*part1	*part1
*staff2	*staff1	*
*I"[Pianoforte]	*I"[Pianoforte]	*
*I'pf	*I'pf	*
*Ipiano	*Ipiano	*
*ICklav	*ICklav	*
*clefF4	*clefG2	*
*k[b-e-a-]	*k[b-e-a-]	*
*E-:	*E-	*
*M3/4	*M3/4	*
=1	=1	=1
*xywh-#19:193,453,2775,760	*xywh-#19:193,453,2775,760	*
!	!LO:TX:a:t=Adagio a capriccio. M.M.	!
4EE-/ 4BB- 4E-	4G/ 4B- 4e-	ff
4E-\ 4B- 4e-	4g\ 4b- 4ee-	.
4r	4r	.
=2	=2	=2
4CC/ 4GG 4C	4G/ 4c 4e- 4g	.
*clefG2	*	*
4c/ 4e- 4g 4cc	4ee-\ 4gg 4ccc 4eee-	.
4r	4r	.
*clefF4	*	*
=3	=3	=3
*	*^	*
*	*	*xywh-#19:193,453,2775,760	*
2.AA-/ 2.E-	[4f/	2.c\	p
.	8f/L]	.	.
.	32g/LL	.	.
.	32f/	.	.
.	32en/	.	.
.	32f/JJJ	.	.
.	8a-/L	.	.
.	8cc/J	.	.
*	*v	*v	*
=4	=4	=4
*^	*	*
*	*xywh-#19:193,453,2775,760	*	*
(4G-X/	[4BB-\	((4An/ 4e-	.
8F/)	8BB-\]	8B-/)) 8d	.
8r	8ryy	8r	.
4r	4ryy	4r	.
*v	*v	*	*
=5	=5	=5
4EE-/ 4BB- 4E-	4G-X/ 4B- 4e-	.
4E-\ 4B- 4e-	4g-X\ 4b- 4ee-	ff
4r	4r	.
=6	=6	=6
4CC-X/ 4GG-X 4C-X	4G-X/ 4c-X 4e- 4g-X	.
*clefG2	*	*
4c-X/ 4g-X 4cc-X	4gg-X\ 4ccc-X 4eee- 4ggg-X	.
4r	4r	.
*clefF4	*	*
!!LO:LB:g=original
=7	=7	=7
*xywh-#19:188,1164,2791,711	*xywh-#19:188,1164,2791,711	*
[4AAA-/ [4AA-	[4c-X/ [4f-X	pp
8AAA-/] 8AA-]	16c-/LL] 16f-]	.
.	16a-'/	.
8r	16cc-X'/	.
.	16ee-'/JJ	.
4r	(28aa-'\LL	.
.	28ccc-X'\	.
.	28aa-'\	.
.	28ff-X'\	.
.	28cc-'\	.
.	28a-'\	.
.	28f-'\JJ)	.
=8	=8	=8
[4BBB-/ [4EE- [4BB-	[4G/ [4d-X [4e- [4g	.
8BBB-/] 8EE-] 8BB-]	64G/LLLL] 64d-] 64e-] 64g]	.
.	(64e-/	<
.	64b-/	.
.	64g/	.
!	!LO:TX:b:i:t=leggiero a piacere	!
.	64dd-X/	.
.	64b-/	.
.	64gg/	.
.	64dd-/	.
8r	64bb-/	.
.	64gg/	.
.	64fff-X/	.
.	64bb-/JJJJ	.
.	64ggg\LLLL	.
.	64ddd\	.
.	64bbb-\	.
.	64ggg\JJJJ)	.
*	*8va	*
4r	(96dddd\LLLL	.
.	96aaan\	.
.	96bbb-\	.
.	96dddd\	.
.	96ggg\	[
.	96bbb-\	>
.	96ddd-X\	.
.	96ggg\	.
*	*X8va	*
.	96bb-\	.
.	96aan\	.
.	96bb-\	.
.	96dddn\	.
.	96gg\	.
.	96bb-\	.
!	!LO:TX:b:i:t=rall. un poco	!
.	96dd-\	.
.	96gg\	.
.	96b-\	.
.	96dd-\	.
.	96g\	.
.	96b-\	.
.	96e-\	.
.	96f-X\	]
.	96e-\	.
.	96d-X\JJJJ)	.
!!LO:LB:g=original
=9	=9	=9
*xywh-#19:188,1860,2791,640	*xywh-#19:188,1860,2791,640	*
!	!LO:TX:b:i:t=a tempo	!
4r	8c-X/	.
.	8r	.
.	8qqcc-X/	.
4r	4.ccc-X\	.
[4A-\ [4c-X [4e- [4f	.	.
.	8aa-\	.
=10	=10	=10
8A-\] 8c-] 8e-] 8f]	8ff'\L	.
8r	8ee-'\	.
4r	8cc-X'\	.
.	8a-'\	>
4r	8f'\	]
.	8e-'\J	.
=11	=11	=11
4AA-/	4F/ 4B- 4d	pp
4GG-X/	4G-X/ 4c-X 4e-	.
4DD/ 4D	4A-/ 4c- 4f	.
=12	=12	=12
*	*^	*
*	*	*xywh-#19:188,1860,2791,640	*
4DD-X/ 4D-X	((4B-/ 4f	[4G\	.
!	!LO:TX:b:i:t=a modo di recitativo....	!	!
8BBB-/ 8BB-	16d-X/LL)) 16f	4G\]	.
.	16en/	.	.
8r	16g/	.	.
.	16f/JJ	.	.
4r	24a-/LL	4ryy	.
.	24g/	.	.
.	24b-/	.	.
.	24a-/	.	.
.	24cc/	.	.
.	24b-/JJ	.	.
*	*v	*v	*
!!LO:LB:g=original
=13	=13	=13
*xywh-#19:182,2471,2731,580	*xywh-#19:182,2471,2731,580	*
2.r	[4dd-X^\	.
.	8dd-\L]	.
.	16cc'\L	.
.	16b-'\JJ	.
.	16a-'/LL	.
.	16g'/	.
.	16f'/	.
.	16en'/JJ	.
=14	=14	=14
8r	8g/L	.
8AA-\ 8F 8A-	32c/Jkk 32f	.
.	32r	.
.	16f/	.
8r	8a-/L	.
8BB-\ 8G-X 8B-	32d-X/Jkk 32g-X	.
.	32r	.
.	16g-/	.
8r	8b-/L	.
8C\ 8An 8c	32e-/Jkk 32an	.
.	32r	.
.	16an/	.
=15	=15	=15
!	!LO:TX:b:i:t=a tempo	!
4r	8cc\	.
.	8r	.
!	!LO:TX:b:i:t=espessivo	!
.	8qqgg-X/	.
4r	4.ggg-X\	.
[4C\ [4G-X [4An [4e-	.	.
.	8eee-\	.
!!LO:LB:g=original
=16	=16	=16
*xywh-#19:177,3018,2758,728	*xywh-#19:177,3018,2758,728	*
2C\] 2G-X] 2An] 2e-]	8ccc'\L	.
.	8aan'\	.
.	8gg-X'\	.
.	8ee-'\	.
4r	8cc'\	.
.	8an'\J	.
=17	=17	=17
4CC/ 4C	4An/ 4e- 4g-X	pp
4BBB-/ 4BB-	4B-/ 4e- 4g- 4b-	.
[4AAA-/ [4AA-	4c-X/ 4e- 4f 4cc-X	.
=18	=18	=18
8AAA-/] 8AA-]	8F/ 8c-X 8d	.
8r	8r	.
4r	[4aa-;\	.
4r	(96aa-\LLLL]	.
.	96gg\	.
.	96bb-\	.
!	!LO:TX:b:i:t=a piacere	!
.	96aa-\	.
.	96ccc-X\	.
.	96aa-\	.
.	96ff\	.
.	96ee-\JJJJ	.
.	96ee-\LLLL	.
.	96dd\	.
.	96ff\	.
.	96dd\	.
.	96aa-\	.
.	96ff\	.
.	96dd\	.
.	96cc-X\JJJJ	.
.	96b-\LLLL	.
.	96a-\	.
.	96cc-\	.
.	96b-\	.
.	96dd-X\	.
.	96cc-\	.
.	96a-\	.
.	96f\JJJJ)	.
!!LO:PB:g=original
=19	=19	=19
*xywh-#20:418,461,2700,765	*xywh-#20:418,461,2700,765	*
!	!	!LO:DY:b=2:rj
8.AAA-/L 8.AA-	[4F/ [4Bn [4d	pp
16GGG/Jk 16GG	.	.
2GGG/ 2GG	24F/LL] 24B] 24d]	.
.	24F/	.
.	24d/	.
.	24B/	.
.	24f/	.
.	24d/JJ	.
.	24bn/LL	.
.	24f/	.
.	24dd/	.
.	24b/	.
.	24ff/	.
.	24dd/JJ	.
=20	=20	=20
8.AAA-/L 8.AA-	[4e-/ [4cc [4ee-	.
16GGG/Jk 16GG	.	.
2GGG/ 2GG	24e-/LL] 24cc] 24ee-]	.
.	24E-/	.
.	24c/	.
.	24G/	.
!	!LO:TX:b:i:t=cres&colon; ... poco .... a .... poco	!
.	24e-/	<
.	24c/JJ	[
.	24g/LL	.
.	24e-/	.
.	24cc/	.
.	24g/	.
.	24ee-/	.
.	24cc/JJ	.
=21	=21	=21
8.GGG/L 8.GG	[4cc\ [4ee- [4aan [4ccc	.
16FFF#X/Jk 16FF#X	.	.
2FFF#/ 2FF#	24cc/LL] 24ee-] 24aa] 24ccc]	.
.	24An/	.
.	24e-/	.
.	24c/	.
.	24an/	.
.	24e-/JJ	.
.	24cc/LL	.
.	24a/	.
.	24ee-/	.
.	24cc/	.
.	24aa/	.
.	24ee-/JJ	.
=22	=22	=22
8.EEE-/L 8.EE-	[4cc\ [4ff#X [4aan [4ccc	.
16DDD/Jk 16DD	.	.
2DDD/ 2DD	24cc\LL] 24ff#] 24aa] 24ccc]	.
.	24c\	.
.	24an\	.
.	24f#X\	.
.	24cc\	.
.	24a\JJ	.
.	24ff#\LL	.
.	24cc\	.
.	24aa\	.
.	24ff#\	.
.	24ccc\	.
.	24aa\JJ	.
!!LO:LB:g=original
=23	=23	=23
*xywh-#20:407,1193,2738,705	*xywh-#20:407,1193,2738,705	*
8.DDD/L 8.DD	[4gg\ [4bb- [4eeen [4ggg	ff
16CCC#X/Jk 16CC#X	.	.
2CCC#/ 2CC#	32gg\LLL] 32bb-] 32eee] 32ggg]	.
.	32eee\	.
.	32ggg\	.
.	32bb-\JJJ	.
.	32eee\LLL	.
.	32gg\	.
.	32bb-\	.
.	32een\JJJ	.
.	32gg\LLL	.
.	32b-\	.
.	32ee\	.
.	32g\JJJ	.
.	32b-\LLL	.
.	32en\	.
.	32g\	.
.	32B-\JJJ	.
=24	=24	=24
*^	*^	*
*	*xywh-#20:407,1193,2738,705	*	*xywh-#20:407,1193,2738,705	*
8DDD/ 8DD	4.ryy	16An/ 16f#X	4.ryy	p
.	.	16r	.	.
8r	.	8dd\	.	.
8r	.	2ee-\	.	.
*clefG2	*	*	*	*
!	!	!LO:TX:b:i:t=sempre dimin&colon; e rall&colon;	!	!
8g/L	4.c\	.	8bb-/L	.
8an/	.	.	8aan/	.
8b-/J	.	.	8gg/J	.
=25	=25	=25	=25	=25
16d/ 16an	4.ryy	16dd\ 16ff#X	4.ryy	>
16r	.	16r	.	]
8r	.	8d/	.	.
8r	.	2e-\	.	.
*clefF4	*	*	*	*
8G/L	4.C\	.	8b-/L	.
8An/	.	.	8an/	.
8B-/J	.	.	8g/J	.
*v	*v	*	*	*
*	*v	*v	*
=26	=26	=26
16D\ 16An	16d/ 16f#X	.
16r	16r	.
8r	8r	.
!	!LO:TX:b:i:t=grave	!
2EE-/ 2GG 2G	4B-/	.
.	4c/	.
=27	=27	=27
[2.DD\ [2.AAn	(2.G/ [2.c	.
.	16qqE#X/LL	.
.	16qqF#X/	.
.	16qqG/	.
.	16qqF#/	.
.	16qqAn/	.
.	16qqG/JJ	.
=28	=28	=28
4DD\] 4AA]	4F#X/) 4c]	.
4r;	4r;	.
16r	16r	.
==	==	==
*-	*-	*-
!!!system-decoration: [(s1,s2)]
!!!ENC: Anastazja Marusiak
!!!END: 2022-03-28
!!!ENC: Julita Ruszuk
!!!END: 2022-03-30
!!!ENC-iiif: Emilia Ziętek
!!!END-iiif: 2022-09-01
!!!YEC: Copyright 2022 Narodowy Instytut Fryderyka Chopina (https://polishscores.org)
!!!YEM: License CC-BY-4.0 (https://creativecommons.org/licenses/by/4.0)
